X: 20972
M: 6/8
L: 1/8
K: F
V: 1 name="5"
c |\
f2f f2f | fef c2c | dBd cAc | BAG F2C |\
f2f f2f | fef c2c | dBd cAc | BGE F2 H|]
cdc FAc | cdc CFA | cdc fed | cdc AFC |\
cdc A2F | cdc A2F | dcB AGF | (G3 "^D.C."F2) |]


